X:2305
T:The Wandescope
T:The Wanderer (Unnysup) 
C:Traditional
O:Isle of Man
S:Mona Melodies No.13
Z:Clague collection
B:Kiaull Vannin #305 
L:1/8
M:6/8 
K:G 
d/|B>AG B>cd|B>AG B>cd|c>dc B>cB|A3-A2 B|cde efg|gfe dcB|A>GA F>EF|G3-G2|| 

